src/images/pages/home/new-trader.svg

<svg xmlns="http://www.w3.org/2000/svg" viewBox="0 0 75 50"><path fill="#fff" d="M20.772 39.201h14.043v8.799h-14.043z"/><path fill="#CDCCCC" d="M33.815 40.201v6.799h-12.043v-6.799h12.043m2-2h-16.043v10.799h16.043v-10.799z"/><path fill="#fff" d="M39.77 28.691h14.046v19.309h-14.046z"/><path fill="#989898" d="M52.816 29.691v17.309h-12.045v-17.309h12.045m2-2h-16.045v21.309h16.045v-21.309z"/><path fill="#fff" d="M58.771 17.025h14.045v30.975h-14.045z"/><path fill="#676767" d="M71.816 18.025v28.975h-12.045v-28.975h12.045m2-2h-16.045v32.975h16.045v-32.975z"/><path fill="#424143" d="M1.185 47.567c0 .489.043.966.109 1.433h15.127c.068-.467.109-.943.109-1.433 0-3.798-2.117-7.028-5.076-8.245 1.314-.785 2.184-2.152 2.184-3.707 0-2.439-2.139-4.418-4.779-4.418-2.643 0-4.779 1.979-4.779 4.418 0 1.555.871 2.922 2.184 3.707-2.96 1.217-5.079 4.448-5.079 8.245"/></svg>

<svg xmlns="http://www.w3.org/2000/svg" viewBox="0 0 75 50"><path fill="#fff" d="M20.772 39.2h14.043V48H20.772z"/><path fill="#CDCCCC" d="M33.815 40.2V47H21.772v-6.8h12.043m2-2H19.772V49h16.043V38.2z"/><path fill="#fff" d="M39.77 28.69h14.046V48H39.77z"/><path fill="#989898" d="M52.816 29.69V47H40.77V29.69h12.046m2-2H38.77V49h16.046V27.69z"/><path fill="#fff" d="M58.77 17.025h14.046V48H58.77z"/><path fill="#676767" d="M71.816 18.025V47H59.77V18.025h12.046m2-2H57.77V49h16.046V16.025z"/><path fill="#424143" d="M1.185 47.567c0 .49.043.966.11 1.433H16.42c.07-.467.11-.943.11-1.433 0-3.798-2.117-7.028-5.076-8.245 1.314-.785 2.184-2.152 2.184-3.707 0-2.44-2.14-4.418-4.78-4.418-2.642 0-4.778 1.98-4.778 4.418 0 1.555.87 2.922 2.184 3.707-2.96 1.217-5.08 4.448-5.08 8.245"/></svg>
